svgs/solid/starfighter.svg

<svg xmlns="http://www.w3.org/2000/svg" viewBox="0 0 640 512"><!--! Font Awesome Pro 6.2.0 by @fontawesome - https://fontawesome.com License - https://fontawesome.com/license (Commercial License) Copyright 2022 Fonticons, Inc. --><path d="M353.8 14L384 256V464c0 8.8-7.2 16-16 16H272c-8.8 0-16-7.2-16-16V256L286.2 14c1-8 7.8-14 15.9-14h35.8c8.1 0 14.9 6 15.9 14zM288 256v48c0 8.8 7.2 16 16 16h32c8.8 0 16-7.2 16-16V256c0-17.7-14.3-32-32-32s-32 14.3-32 32zM48 72c13.3 0 24 10.7 24 24v24c13.3 0 24 10.7 24 24s-10.7 24-24 24V352h56V320c0-17.7 14.3-32 32-32h32c17.7 0 32 14.3 32 32v32 64 32 32c0 17.7-14.3 32-32 32s-32-14.3-32-32v-9.6L72 444v4c0 13.3-10.7 24-24 24s-24-10.7-24-24V168c-13.3 0-24-10.7-24-24s10.7-24 24-24V96c0-13.3 10.7-24 24-24zm544 0c13.3 0 24 10.7 24 24v24c13.3 0 24 10.7 24 24s-10.7 24-24 24V448c0 13.3-10.7 24-24 24s-24-10.7-24-24v-4l-88 26.4V480c0 17.7-14.3 32-32 32s-32-14.3-32-32V448 416 352 320c0-17.7 14.3-32 32-32h32c17.7 0 32 14.3 32 32v32h56V168c-13.3 0-24-10.7-24-24s10.7-24 24-24V96c0-13.3 10.7-24 24-24z"/></svg>

<svg xmlns="http://www.w3.org/2000/svg" viewBox="0 0 640 512"><!--! Font Awesome Pro 6.1.2 by @fontawesome - https://fontawesome.com License - https://fontawesome.com/license (Commercial License) Copyright 2022 Fonticons, Inc. --><path d="M384 256V464C384 472.8 376.8 480 368 480H272C263.2 480 256 472.8 256 464V256L286.2 14.02C287.2 6.009 294.1 0 302.1 0H337.9C345.9 0 352.8 6.009 353.8 14.02L384 256zM288 304C288 312.8 295.2 320 304 320H336C344.8 320 352 312.8 352 304V256C352 238.3 337.7 224 320 224C302.3 224 288 238.3 288 256V304zM48 72C61.25 72 72 82.75 72 96V120C85.25 120 96 130.7 96 144C96 157.3 85.25 168 72 168V352H128V320C128 302.3 142.3 288 160 288H192C209.7 288 224 302.3 224 320V480C224 497.7 209.7 512 192 512C174.3 512 160 497.7 160 480V470.4L72 444V448C72 461.3 61.25 472 48 472C34.75 472 24 461.3 24 448V168C10.75 168 0 157.3 0 144C0 130.7 10.75 120 24 120V96C24 82.75 34.75 72 48 72zM592 72C605.3 72 616 82.75 616 96V120C629.3 120 640 130.7 640 144C640 157.3 629.3 168 616 168V448C616 461.3 605.3 472 592 472C578.7 472 568 461.3 568 448V444L480 470.4V480C480 497.7 465.7 512 448 512C430.3 512 416 497.7 416 480V320C416 302.3 430.3 288 448 288H480C497.7 288 512 302.3 512 320V352H568V168C554.7 168 544 157.3 544 144C544 130.7 554.7 120 568 120V96C568 82.75 578.7 72 592 72z"/></svg>
